X:14146
T:Reel du Pecheur
C:Joseph Allard
M:2/4
L:1/16
K:Bb
F2|B2Bc BFDF|BcdB cBBd|f2fg fdBd|cAFA cedc|!
B2Bc BFDF|BcdB cBBd|f2fg fdBd|cAFA B2:|!
|:de|f2fg fdBd|gagf g2ga|bagf edcB|ABcA F2de|!
f2fg fdBd|gagf g2ga|bagf edcB|AFcA B2:|!
